svg/fluentui-system-icons/ic_fluent_calendar_ltr_12_regular.svg

<svg width="12" height="12" viewBox="0 0 12 12" fill="none" xmlns="http://www.w3.org/2000/svg">
<path d="M3 5.5C3 5.22386 3.22386 5 3.5 5C3.77614 5 4 5.22386 4 5.5C4 5.77614 3.77614 6 3.5 6C3.22386 6 3 5.77614 3 5.5ZM3.5 7C3.22386 7 3 7.22386 3 7.5C3 7.77614 3.22386 8 3.5 8C3.77614 8 4 7.77614 4 7.5C4 7.22386 3.77614 7 3.5 7ZM5 5.5C5 5.22386 5.22386 5 5.5 5C5.77614 5 6 5.22386 6 5.5C6 5.77614 5.77614 6 5.5 6C5.22386 6 5 5.77614 5 5.5ZM5.5 7C5.22386 7 5 7.22386 5 7.5C5 7.77614 5.22386 8 5.5 8C5.77614 8 6 7.77614 6 7.5C6 7.22386 5.77614 7 5.5 7ZM7 5.5C7 5.22386 7.22386 5 7.5 5C7.77614 5 8 5.22386 8 5.5C8 5.77614 7.77614 6 7.5 6C7.22386 6 7 5.77614 7 5.5ZM1 3.5C1 2.11929 2.11929 1 3.5 1H8.5C9.88071 1 11 2.11929 11 3.5V8.5C11 9.88071 9.88071 11 8.5 11H3.5C2.11929 11 1 9.88071 1 8.5V3.5ZM3.5 2C2.84689 2 2.29127 2.4174 2.08535 3H9.91465C9.70873 2.4174 9.15311 2 8.5 2H3.5ZM10 4H2V8.5C2 9.32843 2.67157 10 3.5 10H8.5C9.32843 10 10 9.32843 10 8.5V4Z" fill="#212121"/>
</svg>

<svg xmlns="http://www.w3.org/2000/svg" width="12" height="12"><path d="M3 5.5a.5.5 0 1 1 1 0 .5.5 0 0 1-1 0ZM3.5 7a.5.5 0 1 0 0 1 .5.5 0 0 0 0-1ZM5 5.5a.5.5 0 1 1 1 0 .5.5 0 0 1-1 0ZM5.5 7a.5.5 0 1 0 0 1 .5.5 0 0 0 0-1ZM7 5.5a.5.5 0 1 1 1 0 .5.5 0 0 1-1 0Zm-6-2A2.5 2.5 0 0 1 3.5 1h5A2.5 2.5 0 0 1 11 3.5v5A2.5 2.5 0 0 1 8.5 11h-5A2.5 2.5 0 0 1 1 8.5v-5ZM3.5 2a1.5 1.5 0 0 0-1.415 1h7.83A1.5 1.5 0 0 0 8.5 2h-5ZM10 4H2v4.5A1.5 1.5 0 0 0 3.5 10h5A1.5 1.5 0 0 0 10 8.5V4Z"/></svg>
